source/images/icons/icon-utility/eye-off.svg

<?xml version="1.0" encoding="UTF-8"?>
<svg width="24px" height="24px" viewBox="0 0 24 24" version="1.1" xmlns="http://www.w3.org/2000/svg" xmlns:xlink="http://www.w3.org/1999/xlink">
    <!-- Generator: Sketch 55.2 (78181) - https://sketchapp.com -->
    <title>Icons/24px/Eye-Off</title>
    <desc>Created with Sketch.</desc>
    <g id="Icons/24px/Eye-Off" stroke="none" stroke-width="1" fill="none" fill-rule="evenodd">
        <path d="M16.3714046,17.7856182 L14.0498214,15.4640349 C13.1345398,16.0377496 12.0106407,16.2250419 10.9354035,15.9504452 C9.51815892,15.5885058 8.41149424,14.4818411 8.04955483,13.0645965 C7.77495813,11.9893593 7.96225043,10.8654602 8.53596507,9.95017863 L5.98709753,7.4013111 C4.45030489,8.70137883 3.14933363,10.2581791 2.14255627,12.0031874 C2.26800116,12.2199461 2.41207332,12.4561078 2.57441438,12.7074746 C3.149187,13.5974451 3.82824869,14.4880178 4.6045372,15.3160589 C6.77619226,17.6324909 9.25480244,19 11.9836527,19.0001336 C13.5319873,18.9748191 15.0413507,18.5537574 16.3714046,17.7856182 Z M18.6353776,17.221164 C18.6426961,17.2282614 18.6499248,17.2354891 18.6570605,17.2428469 L23.7071068,22.2928932 C24.0976311,22.6834175 24.0976311,23.3165825 23.7071068,23.7071068 C23.3165825,24.0976311 22.6834175,24.0976311 22.2928932,23.7071068 L17.8260724,19.240286 C16.0959905,20.3535585 14.082753,20.966065 11.9999999,21 C8.62019756,21 5.66130774,19.3675091 3.1454628,16.6839411 C2.28112631,15.7619822 1.5305005,14.7775549 0.894335622,13.7925254 C0.50996726,13.1973744 0.246140906,12.7283498 0.105572809,12.4472136 C-0.0397387988,12.1565904 -0.034789519,11.8134847 0.11884433,11.5271737 C1.25035483,9.41849883 2.75969509,7.53966359 4.5684762,5.98268974 L0.292893219,1.70710678 C-0.0976310729,1.31658249 -0.0976310729,0.683417511 0.292893219,0.292893219 C0.683417511,-0.0976310729 1.31658249,-0.0976310729 1.70710678,0.292893219 L6.75542661,5.34121305 C6.76271162,5.34827889 6.76990732,5.35547365 6.77701081,5.36279725 L10.5831673,9.16895373 C10.5855029,9.17126671 10.5878296,9.17359342 10.5901475,9.1759339 L14.8240661,13.4098525 C14.8264066,13.4121704 14.8287333,13.4144971 14.8310462,13.4168326 L18.6353772,17.2211637 Z M10.0278898,11.4421034 C9.90853345,11.8000567 9.89062456,12.190925 9.98736084,12.5697148 C10.1683305,13.2783371 10.7216629,13.8316695 11.4302852,14.0126392 C11.809075,14.1093754 12.1999433,14.0914665 12.5578966,13.9721102 L10.0278898,11.4421034 Z M21.4255856,11.2925254 C20.850813,10.4025549 20.1717513,9.51198221 19.3954628,8.68394113 C17.2238077,6.36750906 14.7451976,5 11.9976501,4.99999724 C11.368229,4.99851813 10.7407705,5.07022768 10.1279132,5.21368145 C9.5901638,5.33955444 9.05219155,5.00566263 8.92631855,4.46791322 C8.80044556,3.9301638 9.13433737,3.39219155 9.67208678,3.26631855 C10.4358941,3.08753134 11.2178991,2.99815934 12,2.99997214 C15.3798024,2.99997214 18.3386923,4.63249094 20.8545372,7.31605887 C21.7188737,8.23801779 22.4694995,9.22244509 23.1056644,10.2074746 C23.4900327,10.8026256 23.7538591,11.2716502 23.8944272,11.5527864 C24.0394855,11.842903 24.0348204,12.1853547 23.881913,12.4714122 C23.2420806,13.6684038 22.4790254,14.7953232 21.6051562,15.8338447 C21.2495706,16.2564288 20.6187395,16.3107418 20.1961553,15.9551562 C19.7735712,15.5995706 19.7192582,14.9687395 20.0748438,14.5461553 C20.7439122,13.7510227 21.3405972,12.8981486 21.8579836,11.9977456 C21.7324123,11.7807317 21.5881596,11.5442529 21.4255856,11.2925254 Z" id="Icon" fill="#ADB5BD"></path>
    </g>
</svg>

<svg width="24" height="24">
    <title>
        Icons/24px/Eye-Off
    </title>
    <path d="M16.371 17.786l-2.321-2.322A4 4 0 0 1 8.536 9.95L5.987 7.401a17.45 17.45 0 0 0-3.844 4.602 18.513 18.513 0 0 0 2.462 3.313C6.776 17.632 9.255 19 11.984 19a9.07 9.07 0 0 0 4.387-1.214zm2.264-.565a1 1 0 0 1 .022.022l5.05 5.05a1 1 0 0 1-1.414 1.414l-4.467-4.467A11.089 11.089 0 0 1 12 21c-3.38 0-6.339-1.632-8.855-4.316a20.492 20.492 0 0 1-2.25-2.891 15.188 15.188 0 0 1-.79-1.346 1 1 0 0 1 .014-.92 19.45 19.45 0 0 1 4.45-5.544L.292 1.707A1 1 0 1 1 1.707.293L6.755 5.34a1 1 0 0 1 .022.022l3.806 3.806.007.007 4.234 4.234.007.007 3.804 3.804zm-8.607-5.779a1.999 1.999 0 0 0 2.53 2.53l-2.53-2.53zm11.398-.15a18.513 18.513 0 0 0-2.03-2.608C17.223 6.368 14.745 5 11.997 5a8.12 8.12 0 0 0-1.87.214 1 1 0 0 1-.456-1.948A10.116 10.116 0 0 1 12 3c3.38 0 6.339 1.632 8.855 4.316a20.492 20.492 0 0 1 2.25 2.891c.385.596.649 1.065.79 1.346a1 1 0 0 1-.013.918 19.5 19.5 0 0 1-2.277 3.363 1 1 0 0 1-1.53-1.288 17.5 17.5 0 0 0 1.783-2.548c-.126-.217-.27-.454-.432-.705z" fill="#ADB5BD" fill-rule="evenodd"/>
</svg>
